X:1
T:Cradle Song, 11.11.11.11
T:Cradle Song, 11.11.11.11
T:William James Kirkpatrick, 1895
T:Public Domain Courtesy of the Cyber Hymnal™
C:William James Kirkpatrick, 1895
Z:Public Domain
Z:Courtesy of the Cyber Hymnal™
%%score ( 1 2 ) ( 3 4 )
L:1/8
Q:1/4=113
M:3/4
K:F
V:1 treble 
V:2 treble 
V:3 bass 
V:4 bass 
V:1
 C2 | (F2 F2) [DG][CA] | [A,F]2 F2 (AB) | c2 c2 d2 | (B2 B2) (G[FA]) | B2 B2 [Gc]2 | %6
 [GA]2 [FA]2 (FA) | [DG]2 D2 [B,F]2 | [CE]4 C2 | [A,F]2 [A,F]2 ([B,G][CA]) | [A,F]2 [A,F]2 (AB) | %11
 c2 c2 d2 | B4 ([DG][EA]) | B2 B2 [Gc]2 | [GA]2 [FA]2 (FA) | [DG]2 D2 E2 | [A,F]4 |] %17
V:2
 C2 | C4 x2 | x2 F2 F2 | F6 | F4 x2 | F4 x2 | x4 C2 | x2 D2 x2 | x4 C2 | x6 | x4 F2 | F6 | %12
 (F2 E2) x2 | F4 x2 | x4 C2 | x2 D2 (CB,) | x4 |] %17
V:3
 C,2 | [A,,F,]4 [B,,F,][C,E,] | D,2 A,2 (F,G,) | A,2 A,2 B,2 | (D2 C2) ([B,D][CE]) | %5
 D2 D,2 [E,C]2 | [F,C]4 A,2 | F,4 [D,F,]2 | [C,G,]4 C,2 | [F,,C,]6 | [F,,C,]4 (F,G,) | %11
 A,2 A,2 B,2 | (D2 C2) [A,C] x | [G,D]4 [E,C]2 | [F,C]4 [A,,F,]2 | F,4 [C,E,]2 | [F,,C,]4 |] %17
V:4
 C,2 | x6 | D,4 F,2 | F,6 | G,4 x2 | D4 x2 | x4 (A,F,) | B,,2 G,,2 x2 | x4 C,2 | x6 | x4 F,2 | %11
 F,6 | G,4 B, x | x6 | x6 | B,,2 G,,2 x2 | x4 |] %17

